src/lib/packages/icons/src/assets/line/home-dash-user.svg

<svg width="24" height="24" viewBox="0 0 24 24" fill="none" xmlns="http://www.w3.org/2000/svg">
<path d="M17.053 21.75H6.94805C5.37705 21.75 4.03205 20.628 3.75005 19.083L2.2951 11.0999C2.1171 10.1189 2.48408 9.11599 3.25408 8.483L9.93609 2.98995C11.1331 2.00595 12.8701 2.00595 14.0671 2.98995L20.7491 8.483C21.5191 9.11599 21.8861 10.1189 21.7081 11.0999L20.2531 19.083C19.9691 20.628 18.624 21.75 17.053 21.75ZM12.0001 3.75094C11.6041 3.75094 11.21 3.88291 10.888 4.14791L4.20611 9.64095C3.85511 9.92895 3.68807 10.385 3.77007 10.831L5.22503 18.813C5.37603 19.645 6.10107 20.249 6.94707 20.249H17.0521C17.8981 20.249 18.6221 19.645 18.7741 18.813L20.2291 10.8299C20.3101 10.3839 20.143 9.92895 19.793 9.64095L13.111 4.14791C12.79 3.88391 12.3951 3.75094 12.0001 3.75094ZM19.513 18.948H19.523H19.513ZM12.0001 13.05C10.6771 13.05 9.60003 11.973 9.60003 10.65C9.60003 9.32699 10.6771 8.24996 12.0001 8.24996C13.3231 8.24996 14.4001 9.32699 14.4001 10.65C14.4001 11.973 13.3231 13.05 12.0001 13.05ZM12.0001 9.74996C11.5041 9.74996 11.1 10.154 11.1 10.65C11.1 11.146 11.5041 11.55 12.0001 11.55C12.4961 11.55 12.9001 11.146 12.9001 10.65C12.9001 10.154 12.4961 9.74996 12.0001 9.74996ZM15.0001 17.75C14.5861 17.75 14.2501 17.414 14.2501 17V16.697C14.2501 15.977 13.753 15.25 12.642 15.25H11.3591C10.2481 15.25 9.75103 15.977 9.75103 16.697V17C9.75103 17.414 9.41503 17.75 9.00103 17.75C8.58703 17.75 8.25103 17.414 8.25103 17V16.697C8.25103 15.233 9.31806 13.75 11.3591 13.75H12.642C14.683 13.75 15.7501 15.232 15.7501 16.697V17C15.7501 17.414 15.4141 17.75 15.0001 17.75Z" fill="currentColor"/>
</svg>

<svg xmlns="http://www.w3.org/2000/svg" width="24" height="24" fill="none"><path fill="currentColor" d="M17.053 21.75H6.948a3.25 3.25 0 0 1-3.198-2.667L2.295 11.1a2.753 2.753 0 0 1 .96-2.617l6.68-5.493a3.26 3.26 0 0 1 4.131 0l6.682 5.493a2.753 2.753 0 0 1 .96 2.617l-1.456 7.983a3.254 3.254 0 0 1-3.2 2.667ZM12 3.75c-.396 0-.79.133-1.112.398L4.206 9.64a1.248 1.248 0 0 0-.436 1.19l1.455 7.982a1.75 1.75 0 0 0 1.722 1.436h10.105a1.75 1.75 0 0 0 1.722-1.436l1.455-7.983a1.25 1.25 0 0 0-.436-1.189l-6.682-5.493a1.747 1.747 0 0 0-1.11-.397Zm7.513 15.198h.01-.01ZM12 13.05a2.403 2.403 0 0 1-2.4-2.4c0-1.323 1.077-2.4 2.4-2.4s2.4 1.077 2.4 2.4-1.077 2.4-2.4 2.4Zm0-3.3c-.496 0-.9.404-.9.9s.404.9.9.9.9-.404.9-.9-.404-.9-.9-.9Zm3 8a.75.75 0 0 1-.75-.75v-.303c0-.72-.497-1.447-1.608-1.447h-1.283c-1.11 0-1.608.727-1.608 1.447V17a.75.75 0 0 1-1.5 0v-.303c0-1.464 1.067-2.947 3.108-2.947h1.283c2.041 0 3.108 1.482 3.108 2.947V17a.75.75 0 0 1-.75.75Z"/></svg>
